X:1
T: Lady Flora Charlotte Hasting
C:Nathaniel Gow
R:Strathspey
Q: 128
K:Gm
M:4/4
L:1/16
d2|edcB Ac3 Bd3 F4|GFE2 B3G FB,3 D3d|edcB Ac3 Bd3 F4|Bcde f3d gc3 e3g|
edcB Ac3 Bd3 F4|EFGA B3G FB,3 D3F|GFE2 FED2 BF3 d3B|e3c d3B Ac3 d2e2|
|:fd3 d3g gfed b4|f4 gfed fd3 d3g|fd3 d3g gfed b4|b4 f3d gc3 e3g|
fd3 d3g gfed b4|f4|gfed fd3 d3f|b4 a3f g3e fd3|e3c dB3 A3B c2d2:|
edcB Ac3 Bd3 F4|GFE2 B3G FB,3 D3d|edcB Ac3 Bd3 F4|Bcde f3d gc3 e3g|
edcB Ac3 Bd3 F4|EFGA B3G FB,3 D3F|GFE2 FED2 BF3 d3B|e3c d3A G6||
